imgs/logo_language/default-svgrepo-com.svg

<!DOCTYPE svg PUBLIC "-//W3C//DTD SVG 1.1//EN" "http://www.w3.org/Graphics/SVG/1.1/DTD/svg11.dtd">
<!-- Uploaded to: SVG Repo, www.svgrepo.com, Transformed by: SVG Repo Mixer Tools -->
<svg width="800px" height="800px" viewBox="0 0 24 24" fill="none" xmlns="http://www.w3.org/2000/svg">
<g id="SVGRepo_bgCarrier" stroke-width="0"/>
<g id="SVGRepo_tracerCarrier" stroke-linecap="round" stroke-linejoin="round"/>
<g id="SVGRepo_iconCarrier"> <path d="M12 22C17.5228 22 22 17.5228 22 12C22 6.47715 17.5228 2 12 2C6.47715 2 2 6.47715 2 12C2 17.5228 6.47715 22 12 22Z" stroke="#1C274C" stroke-width="1.5"/> <path d="M15.5 9L15.6716 9.17157C17.0049 10.5049 17.6716 11.1716 17.6716 12C17.6716 12.8284 17.0049 13.4951 15.6716 14.8284L15.5 15" stroke="#1C274C" stroke-width="1.5" stroke-linecap="round"/> <path d="M13.2939 7.17041L11.9998 12L10.7058 16.8297" stroke="#1C274C" stroke-width="1.5" stroke-linecap="round"/> <path d="M8.50019 9L8.32861 9.17157C6.99528 10.5049 6.32861 11.1716 6.32861 12C6.32861 12.8284 6.99528 13.4951 8.32861 14.8284L8.50019 15" stroke="#1C274C" stroke-width="1.5" stroke-linecap="round"/> </g>
</svg>

<svg xmlns="http://www.w3.org/2000/svg" width="800" height="800" fill="none" viewBox="0 0 24 24"><g stroke="#1C274C" stroke-width="1.5"><path d="M12 22c5.523 0 10-4.477 10-10S17.523 2 12 2 2 6.477 2 12s4.477 10 10 10Z"/><path stroke-linecap="round" d="m15.5 9 .172.172c1.333 1.333 2 2 2 2.828s-.667 1.495-2 2.828L15.5 15M13.294 7.17 12 12l-1.294 4.83M8.5 9l-.171.172c-1.334 1.333-2 2-2 2.828s.666 1.495 2 2.828L8.5 15"/></g></svg>
